www/assets/icons/atm.svg

<svg xmlns="http://www.w3.org/2000/svg" width="24" height="24" viewBox="0 0 24 24" fill='currentColor'><path d="M8 9v1.5h2.25V15h1.5v-4.5H14V9zM6 9H3c-.55 0-1 .45-1 1v5h1.5v-1.5h2V15H7v-5c0-.55-.45-1-1-1m-.5 3h-2v-1.5h2zM21 9h-4.5c-.55 0-1 .45-1 1v5H17v-4.5h1V14h1.5v-3.51h1V15H22v-5c0-.55-.45-1-1-1"/></svg>

<svg width="24" height="24" viewBox="0 0 24 24" xmlns="http://www.w3.org/2000/svg" fill='currentColor'><path d="M8 9V10.5H10.25V15H11.75V10.5H14V9H8ZM6 9H3C2.45 9 2 9.45 2 10V15H3.5V13.5H5.5V15H7V10C7 9.45 6.55 9 6 9ZM5.5 12H3.5V10.5H5.5V12ZM21 9H16.5C15.95 9 15.5 9.45 15.5 10V15H17V10.5H18V14H19.5V10.49H20.5V15H22V10C22 9.45 21.55 9 21 9Z"/></svg>
